imgs/linkedin.svg

<svg width="20" height="20" viewBox="0 0 20 20" fill="none" xmlns="http://www.w3.org/2000/svg">
<path d="M4.15244 5.9975C5.15944 5.9975 5.97577 5.18116 5.97577 4.17416C5.97577 3.16716 5.15944 2.35083 4.15244 2.35083C3.14544 2.35083 2.3291 3.16716 2.3291 4.17416C2.3291 5.18116 3.14544 5.9975 4.15244 5.9975Z" fill="#F67ACB"/>
<path d="M7.69744 7.37915V17.495H10.8382V12.4925C10.8382 11.1725 11.0866 9.89415 12.7232 9.89415C14.3374 9.89415 14.3574 11.4033 14.3574 12.5758V17.4958H17.4999V11.9483C17.4999 9.22332 16.9132 7.12915 13.7282 7.12915C12.1991 7.12915 11.1741 7.96832 10.7549 8.76248H10.7124V7.37915H7.69744ZM2.5791 7.37915H5.72494V17.495H2.5791V7.37915Z" fill="#F67ACB"/>
</svg>

<svg xmlns="http://www.w3.org/2000/svg" width="20" height="20" fill="none"><path fill="#F67ACB" d="M4.152 5.998a1.823 1.823 0 1 0 0-3.647 1.823 1.823 0 0 0 0 3.646M7.697 7.38v10.115h3.141v-5.003c0-1.32.249-2.598 1.885-2.598 1.614 0 1.634 1.51 1.634 2.682v4.92H17.5v-5.548c0-2.725-.587-4.819-3.772-4.819-1.529 0-2.554.84-2.973 1.633h-.043V7.38zm-5.118 0h3.146v10.115H2.579z"/></svg>
